third_party/region-flags/svg/US-IN.svg

<?xml version="1.0" encoding="UTF-8"?><svg xmlns="http://www.w3.org/2000/svg" xmlns:xlink="http://www.w3.org/1999/xlink" width="750" height="500">
<rect width="750" height="500" id="rect1526" style="fill:#000f5d"/>
<use transform="translate(94.998437,-302.57555)" id="use4474" xlink:href="#path72"/>
<use transform="translate(165.10176,-239.95912)" id="use4472" xlink:href="#path72"/>
<use transform="translate(202.31636,-149.82232)" id="use4468" xlink:href="#path72"/>
<use transform="translate(126.44047,-126.44797)" id="use4466" xlink:href="#path72"/>
<use transform="translate(187.86405,-50.087407)" id="use4464" xlink:href="#path72"/>
<use transform="translate(131.65888,27.026192)" id="use4462" xlink:href="#path72"/>
<use transform="translate(88.726724,-37.115289)" id="use4460" xlink:href="#path72"/>
<use transform="translate(47.979803,74.909224)" id="use4458" xlink:href="#path72"/>
<use transform="translate(-52.93993,74.909224)" id="use4442" xlink:href="#path72"/>
<use transform="translate(-88.937372,-37.115289)" id="use4440" xlink:href="#path72"/>
<use transform="translate(-136.78986,27.026192)" id="use4444" xlink:href="#path72"/>
<use transform="translate(-191.93667,-50.087407)" id="use4446" xlink:href="#path72"/>
<use transform="translate(-204.36749,-149.82232)" id="use4450" xlink:href="#path72"/>
<use transform="translate(-127.05167,-126.44797)" id="use4448" xlink:href="#path72"/>
<use transform="translate(-166.33627,-239.95912)" id="use4452" xlink:href="#path72"/>
<use transform="translate(-95.803472,-302.57555)" id="use4454" xlink:href="#path72"/>
<use transform="translate(-0.23142361,-328.73602)" id="use4456" xlink:href="#path72"/>
<use transform="matrix(-1,0,0,1,752.2069,0)" id="use4438" xlink:href="#path112"/>
<use transform="matrix(-1,0,0,1,751.83265,0)" id="use4436" xlink:href="#path110"/>
<use transform="matrix(-1,0,0,1,751.65672,0)" id="use4434" xlink:href="#path108"/>
<path d="M 354.95018,372.00322 L 370.90411,371.99164 L 376.16124,356.40597 L 381.03319,372.03944 L 397.10166,372.03553 L 384.64728,382.15514 L 389.16062,396.95805 L 376.00022,388.06183 L 362.95541,397.02868 L 367.39789,382.02521 L 354.95018,372.00322 z" id="path72" style="fill:#d59f0f"/>
<path d="M 346.35055,114.65178 L 368.85295,114.69937 L 376.26166,92.714791 L 383.12529,114.71017 L 405.75066,114.73246 L 388.20221,128.96962 L 394.5602,149.82634 L 376.04666,137.32131 L 357.64566,149.94348 L 363.90115,128.77515 L 346.35055,114.65178 z" id="path90" style="fill:#d59f0f"/>
<path d="M 347.52856,222.70253 C 347.4874,222.66214 347.44302,222.60687 347.41502,222.54936 C 329.2787,198.59476 347.7268,189.79066 348.09995,172.84414 C 360.1017,195.12577 342.5136,202.05748 363.42376,222.71921 L 347.52856,222.70253 z" id="path92" style="fill:#d59f0f"/>
<path d="M 367.55914,222.71763 C 361.17397,213.73554 356.69497,199.39741 358.61092,190.03068 C 360.51103,180.66868 366.99816,171.45004 366.0992,164.3641 C 369.47814,172.34214 372.6558,175.4172 371.67189,181.28864 C 376.74893,166.14796 388.41897,158.32285 404.23967,157.54485 C 375.78601,179.16672 412.92895,195.78433 388.36879,222.74202 L 367.55914,222.71763 z" id="path94" style="fill:#d59f0f"/>
<path d="M 393.64217,222.75386 C 416.2383,195.49043 387.48335,181.51801 413.68964,169.30208 C 414.65397,177.3624 408.2312,177.35649 411.06196,187.22123 C 411.54714,191.49333 410.95543,194.97861 409.57113,197.95418 C 412.2374,194.68587 417.42328,188.52085 420.7161,186.12245 C 412.9239,197.86106 421.29136,208.13345 402.49587,222.75309 L 393.25346,222.75616" id="path96" style="fill:#d59f0f"/>
<path d="M 389.82136,281.58361 C 390.82888,256.02095 396.29828,248.23921 406.66763,237.54812 C 386.54613,237.50072 364.05939,237.49715 345.7624,237.48412 C 356.08816,248.19192 361.55073,255.97891 362.50416,281.53921 C 371.61069,281.54324 380.71485,281.56127 389.82136,281.58361 z" id="path98" style="fill:#d59f0f"/>
<path d="M 376.07106,343.98852 L 384.03191,368.9587 L 388.42946,294.87416 C 380.23138,294.84636 372.03328,294.83544 363.83518,294.82352 L 368.05515,368.9428 z" id="path100" style="fill:#d59f0f"/>
<path d="M 375.95444,455.95155 C 379.46647,452.69495 380.46383,442.08558 380.46383,442.08558 L 382.64795,398.78646 L 376.01383,394.12493 L 369.36464,398.77199 L 371.47948,442.08215 C 371.47948,442.08215 372.42152,452.66141 375.93833,455.95502 L 375.95444,455.95155 z" id="path102" style="fill:#d59f0f"/>
<path d="M 411.54548,232.95842 L 340.79522,232.8825 L 340.80282,226.16746 L 411.56793,226.24019 L 411.54548,232.95842 z" id="path104" style="fill:#d59f0f"/>
<path d="M 394.32085,292.6443 L 356.99902,292.6056 L 357.009,284.2516 L 394.33432,284.30641 L 394.32085,292.6443 z" id="path106" style="fill:#d59f0f"/>
<path d="M 200.58174,226.53289 L 333.81402,210.57135 L 333.39761,206.99529 L 200.13809,222.98088 L 200.58174,226.53289 z" id="path108" style="fill:#d59f0f"/>
<path d="M 225.89566,145.68825 L 335.46309,187.81998 L 336.75089,184.47609 L 227.19984,142.34212 L 225.89566,145.68825 z" id="path110" style="fill:#d59f0f"/>
<path d="M 293.74159,98.652483 L 340.89124,165.82514 L 343.81529,163.74908 L 296.653,96.596011 L 293.74159,98.652483 z" id="path112" style="fill:#d59f0f"/>
<path d="M 373.88872,142.71881 L 373.8549,167.16286 L 377.43995,167.1661 L 377.45418,142.70943 L 373.88872,142.71881 z" id="path114" style="fill:#d59f0f"/>
<path d="M 336.86717,114.9936 L 321.38502,107.05518 L 322.46289,104.95307 L 337.94502,112.89149 L 336.86717,114.9936 M 339.50483,109.27627 L 326.99545,97.18368 L 328.79335,95.323842 L 343.52839,98.265219 C 343.85242,98.326562 344.14872,98.393923 344.41728,98.46733 C 344.68583,98.540768 344.9239,98.62306 345.1315,98.714178 L 334.99152,88.912036 L 336.55953,87.289988 L 349.0689,99.38258 L 347.28745,101.22543 L 332.30187,98.28831 C 332.07277,98.242099 331.84346,98.184722 331.61397,98.116203 C 331.38997,98.042041 331.1602,97.956828 330.92467,97.86056 L 341.06464,107.66273 L 339.50483,109.27627 M 352.71073,80.587962 L 348.92506,82.064004 L 353.7437,94.422423 L 357.52934,92.946384 C 359.15073,92.314208 360.1714,91.311921 360.59138,89.939525 C 361.00846,88.559837 360.81511,86.839205 360.01131,84.777631 C 359.2418,82.804108 358.23069,81.457261 356.97791,80.737094 C 355.72515,80.016925 354.30275,79.967245 352.71073,80.587962 M 352.31508,97.261458 L 345.99464,81.051358 L 352.16835,78.644185 C 354.42802,77.763164 356.41895,77.764467 358.14115,78.64809 C 359.87069,79.528905 361.23175,81.242187 362.22439,83.787932 C 363.25131,86.421786 363.42724,88.715479 362.75214,90.669097 C 362.08152,92.612499 360.63106,94.019009 358.40076,94.888627 L 352.31508,97.261458 M 368.67726,92.330698 L 367.30166,74.986458 L 369.65661,74.79968 L 371.03221,92.143923 L 368.67726,92.330698 M 379.32059,85.20946 L 384.64506,86.231076 L 383.44694,78.183506 L 379.32059,85.20946 M 373.0168,91.360617 L 382.64055,75.49103 L 385.20418,75.982928 L 388.2942,94.291867 L 385.77698,93.808911 L 384.94666,88.357608 L 378.21856,87.066694 L 375.41802,91.821354 L 373.0168,91.360617 M 390.0233,95.218923 L 399.85772,80.866231 L 401.99161,82.328384 L 401.55157,97.347685 C 401.54518,97.67743 401.52823,97.980814 401.50069,98.25784 C 401.47312,98.534895 401.43173,98.78336 401.37654,99.003268 L 409.34821,87.369097 L 411.2093,88.644298 L 401.37488,102.99699 L 399.26048,101.54821 L 399.65448,86.28258 C 399.66182,86.048986 399.68011,85.81331 399.70934,85.575606 C 399.74506,85.342361 399.79073,85.10159 399.84631,84.853298 L 391.87462,96.487442 L 390.0233,95.218923 M 411.65492,104.6862 L 414.54312,109.27445 L 419.60599,102.90529 L 411.65492,104.6862 M 402.8567,104.27873 L 421.02302,100.47804 L 422.41363,102.68718 L 411.14374,117.44372 L 409.7783,115.27456 L 413.19501,110.94653 L 409.54545,105.14873 L 404.15923,106.34794 L 402.8567,104.27873" id="text2636" style="fill:#d59f0f"/>
</svg>

<svg xmlns="http://www.w3.org/2000/svg" xmlns:xlink="http://www.w3.org/1999/xlink" width="750" height="500"><path fill="#000f5d" d="M0 0h750v500H0z"/><use transform="translate(94.998 -302.576)" xlink:href="#a"/><use transform="translate(165.102 -239.96)" xlink:href="#a"/><use transform="translate(202.316 -149.822)" xlink:href="#a"/><use transform="translate(126.44 -126.448)" xlink:href="#a"/><use transform="translate(187.864 -50.087)" xlink:href="#a"/><use transform="translate(131.659 27.026)" xlink:href="#a"/><use transform="translate(88.727 -37.115)" xlink:href="#a"/><use transform="translate(47.98 74.91)" xlink:href="#a"/><use transform="translate(-52.94 74.91)" xlink:href="#a"/><use transform="translate(-88.937 -37.115)" xlink:href="#a"/><use transform="translate(-136.79 27.026)" xlink:href="#a"/><use transform="translate(-191.937 -50.087)" xlink:href="#a"/><use transform="translate(-204.367 -149.822)" xlink:href="#a"/><use transform="translate(-127.052 -126.448)" xlink:href="#a"/><use transform="translate(-166.336 -239.96)" xlink:href="#a"/><use transform="translate(-95.803 -302.576)" xlink:href="#a"/><use transform="translate(-.231 -328.736)" xlink:href="#a"/><use transform="matrix(-1 0 0 1 752.207 0)" xlink:href="#b"/><use transform="matrix(-1 0 0 1 751.833 0)" xlink:href="#c"/><use transform="matrix(-1 0 0 1 751.657 0)" xlink:href="#d"/><path d="M354.95 372.003l15.954-.011 5.257-15.586 4.872 15.633 16.069-.003-12.455 10.12 4.514 14.802-13.16-8.896-13.046 8.967 4.443-15.004-12.448-10.022z" id="a" fill="#d59f0f"/><path d="M346.35 114.652l22.503.047 7.409-21.984 6.863 21.995 22.626.022-17.549 14.238 6.358 20.856-18.513-12.505-18.401 12.622 6.255-21.168-17.55-14.123zM347.529 222.703a.587.587 0 0 1-.114-.154c-18.136-23.954.312-32.758.685-49.705 12.002 22.282-5.586 29.213 15.324 49.875l-15.895-.016z" fill="#d59f0f"/><path d="M367.56 222.718c-6.386-8.982-10.865-23.32-8.95-32.687 1.901-9.362 8.388-18.581 7.49-25.667 3.378 7.978 6.556 11.053 5.572 16.925 5.077-15.141 16.747-22.966 32.568-23.744-28.454 21.622 8.689 38.24-15.871 65.197l-20.81-.024z" fill="#d59f0f"/><path d="M393.642 222.754c22.596-27.264-6.159-41.236 20.048-53.452.964 8.06-5.459 8.054-2.628 17.92.485 4.271-.107 7.757-1.49 10.732 2.665-3.268 7.851-9.433 11.144-11.832-7.792 11.74.575 22.011-18.22 36.631l-9.243.003M389.821 281.584c1.008-25.563 6.477-33.345 16.847-44.036-20.122-.047-42.609-.05-60.906-.064 10.326 10.708 15.789 18.495 16.742 44.055 9.107.004 18.21.022 27.317.045zM376.071 343.989l7.96 24.97 4.398-74.085c-8.198-.028-16.396-.039-24.594-.05l4.22 74.119zM375.954 455.952c3.512-3.257 4.51-13.866 4.51-13.866l2.184-43.3-6.634-4.661-6.65 4.647 2.115 43.31s.943 10.58 4.46 13.873l.015-.003zM411.545 232.958l-70.75-.076.008-6.715 70.765.073-.023 6.718zM394.32 292.644L357 292.606l.01-8.354 37.325.054-.013 8.338z" fill="#d59f0f"/><path d="M200.582 226.533l133.232-15.962-.416-3.576-133.26 15.986.444 3.552z" id="d" fill="#d59f0f"/><path d="M225.896 145.688l109.567 42.132 1.288-3.344L227.2 142.342l-1.304 3.346z" id="c" fill="#d59f0f"/><path d="M293.742 98.652l47.15 67.173 2.923-2.076-47.162-67.153-2.911 2.056z" id="b" fill="#d59f0f"/><path d="M373.889 142.719l-.034 24.444 3.585.003.014-24.457-3.565.01zM336.867 114.994l-15.482-7.939 1.078-2.102 15.482 7.938-1.078 2.103m2.638-5.718l-12.51-12.092 1.798-1.86 14.735 2.941c.324.062.62.129.89.202.268.074.506.156.714.247l-10.14-9.802 1.568-1.622 12.509 12.093-1.782 1.842-14.985-2.937a7.783 7.783 0 0 1-.688-.172c-.224-.074-.454-.16-.69-.255l10.14 9.802-1.56 1.613m13.207-28.688l-3.786 1.476 4.819 12.358 3.785-1.476c1.622-.632 2.642-1.634 3.062-3.006.417-1.38.224-3.1-.58-5.162-.77-1.974-1.78-3.32-3.033-4.04-1.253-.721-2.675-.77-4.267-.15m-.396 16.673l-6.32-16.21 6.173-2.407c2.26-.88 4.25-.88 5.973.004 1.73.88 3.09 2.594 4.083 5.14 1.027 2.634 1.203 4.927.528 6.881-.67 1.943-2.12 3.35-4.351 4.22l-6.086 2.372m16.362-4.93l-1.375-17.345 2.355-.186 1.375 17.344-2.355.187m10.644-7.122l5.324 1.022-1.198-8.047-4.126 7.025m-6.304 6.152l9.624-15.87 2.563.492 3.09 18.309-2.517-.483-.83-5.451-6.728-1.291-2.801 4.754-2.401-.46m17.006 3.858l9.835-14.353 2.134 1.462-.44 15.02c-.007.33-.024.633-.051.91a5.19 5.19 0 0 1-.124.745l7.971-11.634 1.861 1.275-9.834 14.353-2.115-1.449.394-15.265c.008-.234.026-.47.055-.707.036-.234.082-.474.137-.723l-7.971 11.634-1.852-1.268m21.632 9.467l2.888 4.588 5.063-6.369-7.951 1.781m-8.798-.407l18.166-3.801 1.39 2.21-11.27 14.756-1.365-2.17 3.417-4.327-3.65-5.798-5.386 1.199-1.302-2.07" fill="#d59f0f"/></svg>
